packages/kaspersky-hexa-ui-icons/src/iconsSVGs/48/Play.svg

<svg xmlns="http://www.w3.org/2000/svg" width="48" height="48" fill="none" viewBox="0 0 48 48"><path fill="currentColor" fill-rule="evenodd" d="m19.999 31.075-.005-14.173 11.583 7.081zm12.621-8.799-11.578-7.078a2 2 0 0 0-2.021-.038 2.003 2.003 0 0 0-1.022 1.745v14.17c0 .723.392 1.392 1.022 1.744.303.171.641.255.978.255.362 0 .725-.098 1.045-.294l11.578-7.092c.599-.367.956-1.006.955-1.707-.001-.702-.358-1.339-.957-1.705M24 46C11.869 46 2 36.131 2 24S11.869 2 24 2s22 9.869 22 22-9.869 22-22 22m0-46C10.767 0 0 10.766 0 24c0 13.233 10.767 24 24 24s24-10.767 24-24C48 10.766 37.233 0 24 0" clip-rule="evenodd"/></svg>

<svg width="48" height="48" viewBox="0 0 48 48" fill="none" xmlns="http://www.w3.org/2000/svg">
<path fill-rule="evenodd" clip-rule="evenodd" d="M19.999 31.075L19.994 16.902L31.577 23.983L19.999 31.075ZM32.62 22.276L21.042 15.198C20.426 14.821 19.652 14.806 19.021 15.16C18.391 15.513 17.999 16.182 17.999 16.905V31.075C17.999 31.798 18.391 32.467 19.021 32.819C19.324 32.99 19.662 33.074 19.999 33.074C20.361 33.074 20.724 32.976 21.044 32.78L32.622 25.688C33.221 25.321 33.578 24.682 33.577 23.981C33.576 23.279 33.219 22.642 32.62 22.276ZM24 46C11.869 46 2 36.131 2 24C2 11.869 11.869 2 24 2C36.131 2 46 11.869 46 24C46 36.131 36.131 46 24 46ZM24 0C10.767 0 0 10.766 0 24C0 37.233 10.767 48 24 48C37.233 48 48 37.233 48 24C48 10.766 37.233 0 24 0Z"  fill="currentColor"/>
</svg>
